X: 216
T: Fingal March
M: 4/4
L: 1/8
R: march
K: Edor
B2 GF EFGA | B2 GF E4 | AGFA d2 A2 | B2 A2 Bcde |
B2 GF EFGA | B2 GF E4 | AGFA d2 A2 |F2 E2 E4 ||
f2 e2 e2 dc | B2 A2 d2 A2 |B2 A2 d2 A2 | B2 A2 Bcde |
f2 e2 e2 dc | B2 A2 d4 | AGFA d2 G2 | F2 E2 E4 |]
